X:1
T:Psalm 144
T:V 6
L:1/4
M:18/4
I:linebreak $
K:C
V:1 treble nm="Pipe Organ" snm="Org."
V:1
 d2 c _B A2 F2 G A B2 c2 B3 z |$ _B2 A G c2 d2 c B A2 A2 G3 z |$ %2
w: Wel- sa- lig- dus hef ek my slot- sang aan-|wel- sa- lig is die volk wie’t so mag gaan!|
[M:16/4] _B2 A G F2 G2 F G F E D3 z |$ F2 G A _B2 c2 B B A A G4 |] %4
w: Wel- sa- lig hul wat by die groot ge- not|van vol- le heil, die HEER het tot hul God!|

